X: 0952
M: 4/4
L: 1/8
K: D
|:\
|:\
f2f>f f2g>f | e>de>f e2A2 | f2f>f f2e>d | e2a>a agfe |\
d2d>c B>cd>B | A2d>e f2d2 | B2d>B A>BA>F | A2d>e d2z2 :|

